X:1
T:Title
%%score { ( 1 3 ) | ( 2 4 ) }
L:1/8
M:4/4
K:G
V:1 treble nm="Grand Piano"
V:3 treble 
V:2 bass 
V:4 bass 
V:1
 z4 z2[Q:1/4=100] [B,D]>[B,D] | [B,G]>[B,G] [DG]>A B>G c>B | B2 A4 F>G | A2 c2 B2 A2 | %4
 [B,DG]6 [B,D]>[B,D] | [B,G]>[B,G] [DG]>A B2 G>G | [EA]>[EA] [EB]>[EB] [Ec]2 [EA]>[EA] | %7
 [Dd]3 [Ec] [DB]2 [CDA]2 |[M:3/4] [B,DG]6 |[M:1/4] B>c |[M:4/4] d6 B2 | G6 z2 | %12
 [B,D]>[B,D] [DG]>A B>B c>B | A6 z2 | d6 z2 | [Ec]>[Ec] [Ec]>[CE] [EG]2 [EA]>[Ec] | B3 B A2 A2 | %17
[M:3/4] [B,DG]6 |] %18
V:2
 z4 z2 [G,,G,]>[G,,G,] | [G,,G,]>[G,,G,] [B,,G,]>[D,F,D] [G,D]>[G,B,D] [F,A,D]>[G,D] | %2
 [D,G,D]2 [D,F,D]4 [D,A,D]>[D,B,D] | [D,CD]2 [D,A,D]2 [D,G,D]2 [D,CD]2 | G,,6 [G,,G,]>[G,,G,] | %5
 [G,,G,]>[G,,G,] [B,,G,]>[D,F,D] [G,D]2 [G,B,D]>[G,B,D] | %6
 [C,A,]>[C,A,] [B,,^G,]>[B,,G,] [A,,A,]2 [C,A,]>[C,E,] | [B,,G,]3 [C,G,] [D,G,]2 D,2 | %8
[M:3/4] G,,6 |[M:1/4] z2 |[M:4/4] z4[K:treble] [G,D]2[K:bass] z2 | %11
 [G,B,]>[G,B,] [G,C]>[G,C] [G,B,]2 [C,C]>[C,G,] | %12
 [A,,G,]>[A,,G,] [B,,G,]>[D,F,D] [G,D]>[G,D] [F,A,D]>[G,D] | [F,D]>F, [E,^C]>[E,C] [D,D]2 z2 | %14
 z2 [G,B,]>[G,B,] [G,B,]>[K:treble][G,DG] [G,D=F]>[G,F] | %15
 [C,G,]>[C,G,] [C,G,]>[C,G,] [C,G,]2 [C,G,]>[C,G,] | [D,G,D]3 [D,G,D] [D,CD]2 [D,CD]2 | %17
[M:3/4] G,,6 |] %18
V:3
 x8 | x8 | x8 | x8 | x8 | x8 | x8 | x8 |[M:3/4] x6 |[M:1/4] x2 |[M:4/4] z2 G>A B>B [CF]->[CFA] | %11
 z z/ D/ E>E D2 [EG]>[CE] | x8 | z z/ D/ G>G F2 B>c | z2 G>G G>B B>B | x8 | x8 |[M:3/4] x6 |] %18
V:4
 x8 | x8 | x8 | x8 | x8 | x8 | x8 | x8 |[M:3/4] x6 |[M:1/4] x2 | %10
[M:4/4] z2[K:treble] [G,B,]>[G,C] z z/ G/[K:bass] D,2 | x8 | x8 | x8 | x11/2[K:treble] x5/2 | x8 | %16
 x8 |[M:3/4] x6 |] %18

